!!!!SEGMENT: pl-cz--iii-370--001-007_krogulski-jozef-wladyslaw--msza-c-benedictus.krn
!!!cenid: 18xx:944
!!!COM: Krogulski, Józef Władysław
!!!COM-rismID: pe30001797
!!!CDT: 1815/10/04-1842/01/09
!!!CNT: Polish
!!!OPR: Msza C
!!!OTL: Benedictus
!!!OMV: 007
!!!PDT:
!!!AGN: Sacred; Mass
!!!SMS-siglum: PL-CZ
!!!SMS-shelfmark: III-370
!!!SMS-shelfwork: 001-007 M
!!!SMS-variant:
!!!SMS-altvar:
!!!NIFC-rismSourceID: 300000646
!!!NIFC-rismChildID: 300000646
!!!NIFC-islandoraID: pl-cz:38094
!!!URL-pdf-islandora: https://repozytorium.nifc.pl/islandora/object/pl-cz%3A38094/datastream/PDF/view
!!!URL-scan:
!!!ONB-nifc: UWAGA: części Mszy: Kyrie, Gloria, Andante przed Ewangelią, Credo, Offertorium, Sanctus, Benedictus, Agnus, Na Benedykcyią
!!!AIN: 1 bass 1 organ 2 vox
!!!key:
**kern	**kern	**dynam	**kern	**dynam	**text	**mod-text	**kern	**dynam	**text	**mod-text	**kern	**dynam	**text	**mod-text
*part4	*part4	*part4	*part3	*part3	*part3	*part3	*part2	*part2	*part2	*part2	*part1	*part1	*part1	*part1
*staff5	*staff4	*	*staff3	*	*staff3	*staff3	*staff2	*	*staff2	*staff2	*staff1	*	*staff1	*staff1
*I"Organ	*I"Organ	*	*I"Bas	*	*	*	*I"Spiew Drugi	*	*	*	*I"Spiew Pierwszy	*	*	*
*mI"Organo	*mI"Organo	*	*mI"Basso	*	*	*	*mI"Voce II	*	*	*	*mI"Voce I	*	*	*
*I'org	*I'org	*	*I'B	*	*	*	*I'V 2	*	*	*	*I'V 1	*	*	*
*Iorgan	*Iorgan	*	*Ibass	*	*	*	*Ivox	*	*	*	*Ivox	*	*	*
*ICklav	*ICklav	*	*ICvox	*	*	*	*ICvox	*	*	*	*ICvox	*	*	*
*IGacmp	*IGacmp	*	*	*	*	*	*	*	*	*	*	*	*	*
*clefF4	*clefG2	*	*clefF4	*	*	*	*clefG2	*	*	*	*clefG2	*	*	*
*k[f#c#g#]	*k[f#c#g#]	*	*k[f#c#g#]	*	*	*	*k[f#g#c#]	*	*	*	*k[g#c#f#]	*	*	*
*	*	*	*	*	*	*	*mk[f#c#g#]	*	*	*	*mk[f#c#g#]	*	*	*
*A:	*A:	*	*A:	*	*	*	*A:	*	*	*	*A:	*	*	*
*M4/4	*M4/4	*	*M4/4	*	*	*	*M4/4	*	*	*	*M4/4	*	*	*
*met(c)	*met(c)	*	*met(c)	*	*	*	*met(c)	*	*	*	*met(c)	*	*	*
*all\right	*all\right	*	*all\right	*	*	*	*all\right	*	*	*	*all\right	*	*	*
!!!OMD:
!!!OMD-mod: Andante
!	!	!	!LO:MO:mod=!null:null	!	!	!	!	!	!	!	!	!	!	!
!	!	!	!LO:TX:a:t=Na Benedictus	!	!	!	!LO:TX:t=P:problem=znaki ff# g# cc#	!	!	!	!	!	!	!
!	!	!	!LO:MO:mod=!LO&colon;TX&colon;a&colon;i&colon;t=Solo	!	!	!	!	!	!	!	!	!	!	!
!	!LO:TX:a:t=Andante:mod=	!LO:DY:rj	!LO:TX:a:t=Solo	!	!	!	!LO:TX:a:i:t=Andante:mod=	!	!	!	!	!	!	!
4A 4AA\	(8cc#L 8a/	p	4A\	.	Wszech-	Wszech-	4ryy	.	.	.	4cc#\	.	wszech-	Wszech-
.	8e/J)	.	.	.	.	.	.	.	.	.	.	.	.	.
=1	=1	=1	=1	=1	=1	=1	=1	=1	=1	=1	=1	=1	=1	=1
!	!	!	!	!	!	!	!LO:MO:mod=!null:null	!	!	!	!	!	!	!
!	!	!	!	!	!	!	!LO:TX:a:t=15	!	!	!	!	!	!	!
1A	(8cc#L 8a\	.	(4.A\	.	-mo-	-mo-	00r	.	.	.	(4.cc#\	.	-mo-	-mo-
.	8e\	.	.	.	.	.	.	.	.	.	.	.	.	.
.	8cc# 8a\	.	.	.	.	.	.	.	.	.	.	.	.	.
.	8ddJ 8b\)	.	8B\	.	.	.	.	.	.	.	8dd\	.	.	.
.	(8eeL 8cc#\	.	4c#\)	.	.	.	.	.	.	.	4ee\)	.	.	.
.	8a\	.	.	.	.	.	.	.	.	.	.	.	.	.
.	8ff# 8dd\	.	4d\	.	-cny	-cny	.	.	.	.	4ff#\	.	-cny	-cny
.	8a\J)	.	.	.	.	.	.	.	.	.	.	.	.	.
=2	=2	=2	=2	=2	=2	=2	=2	=2	=2	=2	=2	=2	=2	=2
*	*tremolo	*	*	*	*	*	*	*	*	*	*	*	*	*
*	*2\right	*	*2\right	*	*	*	*	*	*	*	*2\right	*	*	*
1D 1DD	8ff#L 8dd 8a\	.	2d\	.	Pa-	Pa-	.	.	.	.	2ff#\	.	Pa-	Pa-
.	8f#\	.	.	.	.	.	.	.	.	.	.	.	.	.
.	8ff# 8dd 8a\	.	.	.	.	.	.	.	.	.	.	.	.	.
.	8f#\J	.	.	.	.	.	.	.	.	.	.	.	.	.
*	*Xtremolo	*	*	*	*	*	*	*	*	*	*	*	*	*
.	(8ddL 8b\	.	8B\	.	-nie	-nie,	.	.	.	.	8dd\	.	-nie	-nie,
.	8f#\	.	8r	.	.	.	.	.	.	.	8r	.	.	.
.	8dd 8b\	.	8B\	.	wie-	wie-	.	.	.	.	8dd\	.	wie-	wie-
.	8cc#J 8a\)	.	8B\	.	-ku-	-ku-	.	.	.	.	8dd\	.	-ku-	-ku-
=3	=3	=3	=3	=3	=3	=3	=3	=3	=3	=3	=3	=3	=3	=3
1E 1EE	(8bL 8g#\	.	(4.G#\	.	-i-	-i-	.	.	.	.	(4.b\	.	-i-	-i-
.	8e\	.	.	.	.	.	.	.	.	.	.	.	.	.
.	8b 8g#\	.	.	.	.	.	.	.	.	.	.	.	.	.
.	8cc#J 8a\)	.	8A\	.	.	.	.	.	.	.	8cc#\	.	.	.
!	!LO:SIC:s=(8ddL 8b\:v	!	!	!	!	!	!	!	!	!	!	!	!	!
.	8ddL 8b\	.	4B\)	.	.	.	.	.	.	.	4dd\)	.	.	.
.	8e\	.	.	.	.	.	.	.	.	.	.	.	.	.
.	8ee 8cc#\	.	4c#\	.	-sty	-sty	.	.	.	.	4ee\	.	-sty	-sty
!	!LO:SIC:s=8e\J):v	!	!	!	!	!	!	!	!	!	!	!	!	!
.	8e\J	.	.	.	.	.	.	.	.	.	.	.	.	.
!	!	!	!LO:LB:g=original	!	!	!	!	!	!	!	!	!	!	!
=4	=4	=4	=4	=4	=4	=4	=4	=4	=4	=4	=4	=4	=4	=4
*	*tremolo	*	*	*	*	*	*	*	*	*	*	*	*	*
1A 1AA	(8eeL 8cc#\	.	2c#\	.	Bo-	Bo-	.	.	.	.	2ee\	.	Bo-	Bo-
.	8e\)	.	.	.	.	.	.	.	.	.	.	.	.	.
.	(8ee 8cc#\	.	.	.	.	.	.	.	.	.	.	.	.	.
.	8e\J)	.	.	.	.	.	.	.	.	.	.	.	.	.
.	(8cc#L 8a\	.	4A\	.	-ze	-że,	.	.	.	.	4cc#\	.	-ze	-że,
.	8e\)	.	.	.	.	.	.	.	.	.	.	.	.	.
.	(8cc# 8a\	.	4r	.	.	.	.	.	.	.	4r	.	.	.
.	8e\J)	.	.	.	.	.	.	.	.	.	.	.	.	.
*	*Xtremolo	*	*	*	*	*	*	*	*	*	*	*	*	*
=5	=5	=5	=5	=5	=5	=5	=5	=5	=5	=5	=5	=5	=5	=5
4A\	(8cc#L 8a\	.	(4A\	.	Któż	któż	00r	.	.	.	2cc#\	.	Któż	któż
.	8e\	.	.	.	.	.	.	.	.	.	.	.	.	.
4G#\	8cc#\	.	4G#\)	.	.	.	.	.	.	.	.	.	.	.
.	8eJ\)	.	.	.	.	.	.	.	.	.	.	.	.	.
!LO:LB:g=original	!LO:LB:g=original	!	!	!	!	!	!	!	!	!	!	!	!	!
4F#\	(8ddL 8a\	.	4F#\	.	się	się	.	.	.	.	4dd\	.	się	się
.	8d\	.	.	.	.	.	.	.	.	.	.	.	.	.
4E\	8cc# 8a\	.	4E\	.	Twym	Twym	.	.	.	.	4cc#\	.	Twym	Twym
.	8eJ\)	.	.	.	.	.	.	.	.	.	.	.	.	.
=6	=6	=6	=6	=6	=6	=6	=6	=6	=6	=6	=6	=6	=6	=6
4D\	(8ff#L 8cc# 8a\	.	4D/	.	spra-	spra-	.	.	.	.	4ff#\	.	spra-	spra-
.	8f#\	.	.	.	.	.	.	.	.	.	.	.	.	.
*	*	*	*	*	*	*	*	*	*	*	*	*	*above	*above
4C#\	8ee 8a\	.	4C#/	.	-wom	-wom	.	.	.	.	4ee\	.	-wom	-wom
.	8e\J)	.	.	.	.	.	.	.	.	.	.	.	.	.
!	!	!	!	!	!	!	!	!	!	!	!LO:LB:g=original	!	!	!
*	*	*	*	*	*	*	*	*	*	*	*	*	*below	*below
4F#\	(8ddL 8a\	.	4F#\	.	wi-	wi-	.	.	.	.	4dd\	.	wy-	wy-
.	8d\	.	.	.	.	.	.	.	.	.	.	.	.	.
4E\	8cc# 8a\	.	4E\	.	-dzi-	-dzi-	.	.	.	.	4cc#\	.	-dzi-	-dzi-
.	8e\J)	.	.	.	.	.	.	.	.	.	.	.	.	.
=7	=7	=7	=7	=7	=7	=7	=7	=7	=7	=7	=7	=7	=7	=7
!	!LO:SIC:s=(8bL 8g#/:v	!	!	!	!	!	!	!	!	!	!	!	!	!
4D\	8bL 8g#/	.	(4D/	.	-wo-	-wo-	.	.	.	.	(4b/	.	-wo-	-wo-
.	8e/	.	.	.	.	.	.	.	.	.	.	.	.	.
!	!	!	!LO:SIC:s=4C#/:v	!	!	!	!	!	!	!	!	!	!	!
4C#\	8a/	.	4C#/)	.	.	.	.	.	.	.	4a/	.	.	.
!	!LO:SIC:s=8e/J):v	!	!	!	!	!	!	!	!	!	!	!	!	!
.	8e/J	.	.	.	.	.	.	.	.	.	.	.	.	.
!	!LO:SIC:s=(8ddL 8g#/:v	!	!	!	!	!	!	!	!	!	!	!	!	!
!	!	!	!LO:SIC:s=4BB/):v	!	!	!	!	!	!	!	!	!	!	!
4BB/	8ddL 8g#/	.	4BB/	.	.	.	.	.	.	.	4dd/)	.	.	.
.	8e/	.	.	.	.	.	.	.	.	.	.	.	.	.
4AA/	8cc# 8a/	.	4AA/	.	-wać	-wać	.	.	.	.	4cc#/	.	-wać	-wać
!	!LO:SIC:s=8e/J):v	!	!	!	!	!	!	!	!	!	!	!	!	!
.	8e/J	.	.	.	.	.	.	.	.	.	.	.	.	.
=8	=8	=8	=8	=8	=8	=8	=8	=8	=8	=8	=8	=8	=8	=8
*	*tremolo	*	*	*	*	*	*	*	*	*	*	*	*	*
4AA/	8cc#L 8a/	.	(4AA/	.	mo-	mo-	.	.	.	.	2cc#\	.	mo-	mo-
.	8e/	.	.	.	.	.	.	.	.	.	.	.	.	.
4C#/	8cc# 8a/	.	4C#/)	.	.	.	.	.	.	.	.	.	.	.
.	8e/J	.	.	.	.	.	.	.	.	.	.	.	.	.
!	!LO:SIC:s=(8bL 8a/:v	!	!	!	!	!	!	!	!	!	!	!	!	!
4E/	8bL 8a/	.	4E/	.	-ze	-że?	.	.	.	.	4b\	.	-ze	-że?
.	8g# 8e/	.	.	.	.	.	.	.	.	.	.	.	.	.
4r	8a 8f#/	.	4r	.	.	.	.	.	.	.	4r	.	.	.
!	!LO:SIC:s=8bJ 8g#/):v	!	!	!	!	!	!	!	!	!	!	!	!	!
.	8bJ 8g#/	.	.	.	.	.	.	.	.	.	.	.	.	.
=9	=9	=9	=9	=9	=9	=9	=9	=9	=9	=9	=9	=9	=9	=9
*2\right	*tremolo	*	*	*	*	*	*	*	*	*	*	*	*	*
2A 2AA\	8cc#L 8a\	.	2A\	.	Kto	Kto	00r	.	.	.	2cc#\	.	kto	Kto
.	8e\	.	.	.	.	.	.	.	.	.	.	.	.	.
.	8cc# 8a\	.	.	.	.	.	.	.	.	.	.	.	.	.
.	8e\J	.	.	.	.	.	.	.	.	.	.	.	.	.
*	*Xtremolo	*	*	*	*	*	*	*	*	*	*	*	*	*
!	!LO:SIC:s=(8b\L:v	!	!	!	!	!	!	!	!	!	!	!	!	!
4G# 4GG#\	8b\L	.	4G#\	.	ro-	ro-	.	.	.	.	4b\	.	ro-	ro-
.	8e\	.	.	.	.	.	.	.	.	.	.	.	.	.
4Gn 4GGn\	8cc#\	.	4Gn\	.	-zu-	-zu-	.	.	.	.	4cc#\	.	-zu-	-zu-
!	!LO:SIC:s=8e\J):v	!	!	!	!	!	!	!	!	!	!	!	!	!
.	8e\J	.	.	.	.	.	.	.	.	.	.	.	.	.
!	!	!	!LO:LB:g=original	!	!	!	!	!	!	!	!	!	!	!
=10	=10	=10	=10	=10	=10	=10	=10	=10	=10	=10	=10	=10	=10	=10
!	!LO:SIC:s=(8dd\L:v	!	!	!	!	!	!	!	!	!	!	!	!	!
4F# 4FF#/	8dd\L	.	(4F#\	.	-mo-	-mo-	.	.	.	.	(4dd\	.	-mo-	-mo-
.	8a\	.	.	.	.	.	.	.	.	.	.	.	.	.
4E 4C# 4CC#/	8ee\	.	4C#\)	.	.	.	.	.	.	.	4ee\)	.	.	.
!	!LO:SIC:s=8a\J):v	!	!	!	!	!	!	!	!	!	!	!	!	!
.	8a\J	.	.	.	.	.	.	.	.	.	.	.	.	.
*	*tremolo	*	*	*	*	*	*	*	*	*	*	*	*	*
4D 4DD/	8ff#L 8dd\	.	4D\	.	-wi	-wi,	.	.	.	.	4ff#\	.	-wi	-wi,
.	8a\	.	.	.	.	.	.	.	.	.	.	.	.	.
4r	8ff# 8dd\	.	4r	.	.	.	.	.	.	.	4r	.	.	.
.	8a\J	.	.	.	.	.	.	.	.	.	.	.	.	.
*	*Xtremolo	*	*	*	*	*	*	*	*	*	*	*	*	*
=11	=11	=11	=11	=11	=11	=11	=11	=11	=11	=11	=11	=11	=11	=11
2C# 2CC#/	(8eeL 8cc#\	.	(4E\	.	Kto-	któ-	.	.	.	.	4.ee\	.	kto-	któ-
.	8e\	.	.	.	.	.	.	.	.	.	.	.	.	.
.	8ee 8cc#\	.	8c#\)	.	.	.	.	.	.	.	.	.	.	.
.	8cc#J 8a\)	.	8A\	.	-rym	-rym	.	.	.	.	8cc#\	.	-rym	-rym
!	!	!	!LO:SIC:s=(8B\L:v	!	!	!	!	!	!	!	!LO:SIC:s=(8dd\L:v	!	!	!
2ryy	(8ddL 8b\	.	8B\L	.	nie-	nie-	.	.	.	.	8dd\L	.	nie-	nie-
.	8ee 8cc#\	.	8c#\	.	.	.	.	.	.	.	8ee\	.	.	.
!	!	!	!LO:SIC:s=8d\J):v	!	!	!	!	!	!	!	!LO:SIC:s=8ff#\J):v	!	!	!
.	8ff# 8dd\	.	8d\J	.	.	.	.	.	.	.	8ff#\J	.	.	.
.	8eeJ 8cc#\)	.	8c#\	.	-zmie-	-zmie-	.	.	.	.	8ee\	.	-zmie-	-zmie-
!LO:LB:g=original	!LO:LB:g=original	!	!	!	!	!	!	!	!	!	!	!	!	!
=12	=12	=12	=12	=12	=12	=12	=12	=12	=12	=12	=12	=12	=12	=12
*	*tremolo	*	*	*	*	*	*	*	*	*	*	*	*	*
[1A [1AA	(8eeL 8cc#\	.	2c#\	.	-rzo-	-rzo-	.	.	.	.	2ee\	.	-rzo-	-rzo-
.	8e\)	.	.	.	.	.	.	.	.	.	.	.	.	.
.	(8ee 8cc#\	.	.	.	.	.	.	.	.	.	.	.	.	.
.	8e\J)	.	.	.	.	.	.	.	.	.	.	.	.	.
.	8cc#L 8a\	.	4A\	.	-na	-na	.	.	.	.	4cc#\	.	-na	-na
.	8e\	.	.	.	.	.	.	.	.	.	.	.	.	.
.	8cc# 8a\	.	4r	.	.	.	.	.	.	.	4r	.	.	.
.	8e\J	.	.	.	.	.	.	.	.	.	.	.	.	.
*	*Xtremolo	*	*	*	*	*	*	*	*	*	*	*	*	*
!	!	!	!	!	!	!	!	!	!	!	!LO:LB:g=original	!	!	!
=13	=13	=13	=13	=13	=13	=13	=13	=13	=13	=13	=13	=13	=13	=13
1A_ 1AA_	(8eeL 8cc#\	.	(4.c#\	.	Zie-	zie-	0r	.	.	.	(4.ee\	.	Zie-	zie-
.	8e\	.	.	.	.	.	.	.	.	.	.	.	.	.
.	8ee 8cc#\	.	.	.	.	.	.	.	.	.	.	.	.	.
.	8ddJ 8b\)	.	8B\)	.	.	.	.	.	.	.	8dd\)	.	.	.
!	!LO:SIC:s=(8cc#L 8a\:v	!	!	!	!	!	!	!	!	!	!	!	!	!
.	8cc#L 8a\	.	4A\	.	-mia	-mia	.	.	.	.	4cc#\	.	-mia	-mia
.	8e\	.	.	.	.	.	.	.	.	.	.	.	.	.
.	8dd 8b\	.	4B\	.	stwo-	stwo-	.	.	.	.	4dd\	.	stwo-	stwo-
!	!LO:SIC:s=8e\J):v	!	!	!	!	!	!	!	!	!	!	!	!	!
.	8e\J	.	.	.	.	.	.	.	.	.	.	.	.	.
=14	=14	=14	=14	=14	=14	=14	=14	=14	=14	=14	=14	=14	=14	=14
*	*tremolo	*	*	*	*	*	*	*	*	*	*	*	*	*
(1A] (1AA]	8eeL 8cc#\	.	2c#\	.	-rzo-	-rzo-	.	.	.	.	2ee\	.	-rzo-	-rzo-
.	8e\	.	.	.	.	.	.	.	.	.	.	.	.	.
.	8ee 8cc#\	.	.	.	.	.	.	.	.	.	.	.	.	.
.	8e\J	.	.	.	.	.	.	.	.	.	.	.	.	.
.	8cc#L 8a\	.	4A\	.	-na	-na,	.	.	.	.	4cc#\	.	-na	-na,
.	8e\	.	.	.	.	.	.	.	.	.	.	.	.	.
.	8cc# 8a\	.	4r	.	.	.	.	.	.	.	4r	.	.	.
.	8e\J	.	.	.	.	.	.	.	.	.	.	.	.	.
*	*Xtremolo	*	*	*	*	*	*	*	*	*	*	*	*	*
!	!	!	!LO:LB:g=original	!	!	!	!	!	!	!	!	!	!	!
=15	=15	=15	=15	=15	=15	=15	=15	=15	=15	=15	=15	=15	=15	=15
!	!LO:SIC:s=(8cc#L 8a\:v	!	!	!	!	!	!	!	!	!	!LO:SIC:s=(4cc#\:v	!	!	!
[1E [1EE))	8cc#L 8a\	.	(4A\	.	Zie-	zie-	1r	.	.	.	4cc#\	.	Zie-	zie-
.	8e\	.	.	.	.	.	.	.	.	.	.	.	.	.
.	8b 8g#\	.	8G#\L	.	.	.	.	.	.	.	8b\L	.	.	.
!	!LO:SIC:s=8cc#J 8a\):v	!	!	!	!	!	!	!	!	!	!LO:SIC:s=8cc#\J):v	!	!	!
.	8cc#J 8a\	.	8A\J)	.	.	.	.	.	.	.	8cc#\J	.	.	.
!	!LO:SIC:s=(8eeL 8cc#\:v	!	!	!	!	!	!	!	!	!	!LO:SIC:s=(8ee\L:v	!	!	!
!	!	!	!LO:SIC:s=(8c#\L:v	!	!	!	!	!	!	!	!	!	!	!
.	8eeL 8cc#\	.	8c#\L	.	-mia	-mia	.	.	.	.	8ee\L	.	-mia	-mia
!	!	!	!LO:SIC:s=8B\J):v	!	!	!	!	!	!	!	!LO:SIC:s=8dd\J):v	!	!	!
.	8dd 8b\	.	8B\J	.	.	.	.	.	.	.	8dd\J	.	.	.
!	!	!	!LO:SIC:s=(8A\L:v	!	!	!	!	!	!	!	!LO:SIC:s=(8cc#\L:v	!	!	!
.	8cc# 8a\	.	8A\L	.	stwo-	stwo-	.	.	.	.	8cc#\L	.	stwo-	stwo-
!	!LO:SIC:s=8bJ 8g#\):v	!	!	!	!	!	!	!	!	!	!	!	!	!
!	!	!	!LO:SIC:s=8G#\J):v	!	!	!	!	!	!	!	!LO:SIC:s=8b\J):v	!	!	!
.	8bJ 8g#\	.	8G#\J	.	.	.	.	.	.	.	8b\J	.	.	.
=16	=16	=16	=16	=16	=16	=16	=16	=16	=16	=16	=16	=16	=16	=16
*	*tremolo	*	*	*	*	*	*	*	*	*	*	*	*	*
2E] 2EE/]	8bL 8g#/	.	2G#\	.	-rzo-	-rzo-	2r	.	.	.	2b\	.	-rzo-	-rzo-
.	8d/	.	.	.	.	.	.	.	.	.	.	.	.	.
.	8b 8g#/	.	.	.	.	.	.	.	.	.	.	.	.	.
.	8d/J	.	.	.	.	.	.	.	.	.	.	.	.	.
*	*Xtremolo	*	*	*	*	*	*	*	*	*	*	*	*	*
8A 8AA\	8a 8c#/	.	8A\	.	-na	-na?	4r	.	.	.	8a\	.	-na	-na?
8r	8r	.	8r	.	.	.	.	.	.	.	8r	.	.	.
!	!	!LO:DY:rj	!	!	!	!	!	!LO:DY:a:t=fo	!	!	!LO:TX:a:i:t=Coro	!	!	!
!	!	!	!	!LO:DY:t= :mod=%s	!	!	!	!	!	!	!	!	!	!
!	!	!	!	!LO:MO:mod=!LO&colon;DY&colon;ed=brack	!	!	!	!	!	!	!	!	!	!
!	!	!	!	!	!	!	!	!	!	!	!	!LO:DY:t= :mod=%s	!	!
!	!	!	!	!	!	!	!	!	!	!	!	!LO:MO:mod=!LO&colon;DY&colon;ed=brack	!	!
!	!	!	!	!null	!	!	!	!	!	!	!	!null	!	!
4A\	4cc# 4a\	f	4A\	f	Gdzie-	Gdzie-	4a/	f	Gdzie-	Gdzie-	4cc#\	f	gdzie-	Gdzie-
=17	=17	=17	=17	=17	=17	=17	=17	=17	=17	=17	=17	=17	=17	=17
2.A\	4.cc# 4.a\	.	2.A\	.	-kol-	-kol-	(4.a/	.	-kol-	-kol-	(4.cc#\	.	-kol-	-kol-
.	8dd 8b\	.	.	.	.	.	8b/	.	.	.	8dd\	.	.	.
.	4ee 4cc#\	.	.	.	.	.	4cc#/)	.	.	.	4ee\)	.	.	.
4D\	4ff# 4dd\	.	4D\	.	-wiek	-wiek	4dd/	.	-wiek	-wiek	4ff#\	.	-wiek	-wiek
=18	=18	=18	=18	=18	=18	=18	=18	=18	=18	=18	=18	=18	=18	=18
*	*^	*	*	*	*	*	*	*	*	*	*	*	*	*
*	*	*	*	*	*	*	*	*2\right	*	*	*	*	*	*	*
!LO:SIC:s=[(2D\:v	!	!	!	!	!	!	!	!	!	!	!	!	!	!	!
(2D\	2ff# 2dd/	4a\	.	2D\	.	slon-	słoń-	2dd\	.	slon-	słoń-	2ff#\	.	slon-	słoń-
.	.	4a#X\	.	.	.	.	.	.	.	.	.	.	.	.	.
!LO:SIC:s=8D\]:v	!	!	!	!	!	!	!	!	!	!	!	!LO:PB:g=original	!	!	!
8D\)	8dd 8b\	2ryy	.	8D\	.	-ce	-ce	8b\	.	-ce	-ce	8dd\	.	-ce	-ce
8r	8r	.	.	8r	.	.	.	8r	.	.	.	8r	.	.	.
8D\L	8ddL 8b\	.	.	8D\	.	rzu-	rzu-	8b\	.	rzu-	rzu-	8dd\	.	rzu-	rzu-
8D#X\J	8cc#J 8an\	.	.	8D#X\	.	-ca	-ca	8a\	.	-ca	-ca	8cc#\	.	-ca	-ca
*	*v	*v	*	*	*	*	*	*	*	*	*	*	*	*	*
!LO:LB:g=original	!LO:LB:g=original	!	!	!	!	!	!	!	!	!	!	!	!	!
=19	=19	=19	=19	=19	=19	=19	=19	=19	=19	=19	=19	=19	=19	=19
1E	4.b 4.g#\	.	2.E\	.	o-	o-	(<4.g#/	.	o-	o-	(4.b\	.	o-	o-
.	8cc# 8a\	.	.	.	.	.	8a/	.	.	.	8cc#\	.	.	.
!	!	!	!	!	!	!	!LO:LB:g=original	!	!	!	!	!	!	!
!	!	!	!	!	!	!	!	!	!	!	!LO:SIC:s=4dd\):v	!	!	!
!	!	!	!	!	!	!	!LO:SIC:s=4b\):v	!	!	!	!	!	!	!
.	4dd 4b\	.	.	.	.	.	4b\	.	.	.	4dd\	.	.	.
!	!	!	!	!	!	!	!LO:TX:t=P:problem=koniec łuku na dole	!	!	!	!	!	!	!
!	!	!	!	!	!	!	!	!	!	!	!LO:SIC:s=4ee\:v	!	!	!
!	!	!	!	!	!	!	!LO:SIC:s=4cc#\:v	!	!	!	!	!	!	!
.	4ee 4cc#\	.	4E\	.	-gnie	-gnie	4cc#\)	.	-gnie	-gnie	4ee\)	.	-gnie	-gnie
!	!	!	!LO:LB:g=original	!	!	!	!	!	!	!	!	!	!	!
=20	=20	=20	=20	=20	=20	=20	=20	=20	=20	=20	=20	=20	=20	=20
2A\	2ee 2cc#\	.	2A\	.	swo-	swo-	2cc#\	.	Po ca	swo-	2ee\	.	swo-	swo-
4A\	4cc# 4a\	.	8A\	.	-je	-je,	8a/	.	-łym	-je,	8cc#\	.	-ie	-je,
.	.	.	8r	.	.	.	4r	.	.	.	4r	.	.	.
4A\	4cc# 4a\	.	4A\	.	po	po	.	.	.	.	.	.	.	.
.	.	.	.	.	.	.	8a\	.	Po	po	8cc#\	.	po	po
=21	=21	=21	=21	=21	=21	=21	=21	=21	=21	=21	=21	=21	=21	=21
*	*^	*	*	*	*	*	*	*	*	*	*	*	*	*
4A\	2cc#/	1a	.	(4A\	.	ca-	ca-	2.a/	.	ca-	ca-	(2cc#\	.	ca-	ca-
4G#\	.	.	.	4G#\	.	.	.	.	.	.	.	.	.	.	.
4F#\	4dd/	.	.	4F#\)	.	.	.	.	.	.	.	4dd\)	.	.	.
4E\	4cc#/	.	.	4E\	.	-łym	-łym	4a/	.	-łym	-łym	4cc#\	.	-łym	-łym
=22	=22	=22	=22	=22	=22	=22	=22	=22	=22	=22	=22	=22	=22	=22	=22
4D/	4ff#/	1a	.	4D\	.	świe-	świe-	4a/	.	świe-	świe-	4ff#\	.	swie-	świe-
4C#/	4ee/	.	.	4C#\	.	-cie	-cie	4a/	.	-cie	-cie	4ee\	.	-cie	-cie
4F#/	4dd/	.	.	4F#\	.	sły-	sły-	4a/	.	sły-	sły-	4dd\	.	sły-	sły-
*	*	*	*	*	*	*	*	*	*	*	*	*	*	*above	*above
4E/	4cc#/	.	.	4E\	.	-nie	-nie	4a/	.	-nie	-nie	4cc#\	.	-nie	-nie
=23	=23	=23	=23	=23	=23	=23	=23	=23	=23	=23	=23	=23	=23	=23	=23
*	*	*	*	*	*	*	*	*	*	*	*	*	*	*below	*below
4D/	4b/	2f#\	.	(4D/	.	i-	I-	(2f#/	.	i-	I-	(4b\	.	i-	I-
4C#/	4a/	.	.	4C#/	.	.	.	.	.	.	.	4a\	.	.	.
!	!	!	!	!	!	!	!	!	!	!	!	!LO:SIC:s=4dd\):v	!	!	!
4BB/	4dd\	4g# 4e\	.	4BB/)	.	.	.	4g#/)	.	.	.	4dd\	.	.	.
!	!	!	!	!	!	!	!	!	!	!	!	!LO:SIC:s=4cc#\:v	!	!	!
4AA/	4cc#\	4a 4e\	.	4AA/	.	-mnie	-mię	4a/	.	-mie	-mię	4cc#\)	.	-mnie	-mię
*	*v	*v	*	*	*	*	*	*	*	*	*	*	*	*	*
!	!	!	!	!	!	!	!	!	!	!	!LO:LB:g=original	!	!	!
=24	=24	=24	=24	=24	=24	=24	=24	=24	=24	=24	=24	=24	=24	=24
4AA/	2cc# 2a 2e\	.	(4AA/	.	two-	Two-	2a/	.	Two-	Two-	2cc#\	.	two-	Two-
4C#/	.	.	4C#/)	.	.	.	.	.	.	.	.	.	.	.
4E\	4b 4g# 4e\	.	8E/	.	-ie	-je,	8g#/	.	-ie	-je,	8b\	.	-ie	-je,
.	.	.	8r	.	.	.	8r	.	.	.	8r	.	.	.
4E\	4b 4g#\	.	4E\	.	bo	bo	4g#/	.	bo	bo	4b\	.	bo	bo
!	!	!	!LO:LB:g=original	!	!	!	!	!	!	!	!	!	!	!
=25	=25	=25	=25	=25	=25	=25	=25	=25	=25	=25	=25	=25	=25	=25
1A 1AA	2cc# 2a\	.	2.AA/	.	sła-	sła-	(2a/	.	sła-	sła-	(2cc#\	.	sła-	sła-
.	4b 4gn/	.	.	.	.	.	4gn/)	.	.	.	4b\)	.	.	.
!	!	!	!	!	!	!	!LO:LB:g=original	!	!	!	!	!	!	!
.	4cc# 4e/	.	4AA/	.	-wy	-wy	4e/	.	-wy	-wy	4cc#\	.	-wy	-wy
=26	=26	=26	=26	=26	=26	=26	=26	=26	=26	=26	=26	=26	=26	=26
4D/	4dd 4f#\	.	(4D/	.	Nie-	nie-	(4f#/	.	Nie-	nie-	(4dd\	.	Nie-	nie-
4C#/	4ee 4a\	.	4C#/)	.	.	.	4a/)	.	.	.	4ee\)	.	.	.
4D/	2ff# 2dd\	.	4D/	.	-bo	-bo	4dd\	.	-bo	-bo	4ff#\	.	-bo	-bo
4BB/	.	.	4BB/	.	o-	o-	4dd\	.	o-	o-	4ff#\	.	o-	o-
=27	=27	=27	=27	=27	=27	=27	=27	=27	=27	=27	=27	=27	=27	=27
1E 1EE	4.ee 4.cc#\	.	2E\	.	-gar-	-gar-	(4.cc#\	.	-gar-	-gar-	(4.ee\	.	-gar-	-gar-
.	8cc# 8a\	.	.	.	.	.	8a\)	.	.	.	8cc#\)	.	.	.
!	!LO:SIC:s=(8ddL 8b\:v	!	!	!	!	!	!LO:SIC:s=(8b\L:v	!	!	!	!LO:SIC:s=(8dd\L:v	!	!	!
.	8ddL 8b\	.	4E\	.	-nąć	-nąć	8b\L	.	-nąć	-nąć	8dd\L	.	-nąć	-nąć
!	!	!	!	!	!	!	!LO:SIC:s=8cc#\J):v	!	!	!	!LO:SIC:s=8ee\J):v	!	!	!
.	8ee 8cc#\	.	.	.	.	.	8cc#\J	.	.	.	8ee\J	.	.	.
!	!	!	!	!	!	!	!LO:SIC:s=(8dd\L:v	!	!	!	!LO:SIC:s=(8ff#\L:v	!	!	!
.	8ff# 8dd\	.	4E\	.	nie	nie	8dd\L	.	nie	nie	8ff#\L	.	nie	nie
!	!LO:SIC:s=8eeJ 8cc#\):v	!	!	!	!	!	!LO:SIC:s=8cc#\J):v	!	!	!	!LO:SIC:s=8ee\J):v	!	!	!
.	8eeJ 8cc#\	.	.	.	.	.	8cc#\J	.	.	.	8ee\J	.	.	.
!LO:LB:g=original	!LO:LB:g=original	!	!	!	!	!	!	!	!	!	!	!	!	!
=28	=28	=28	=28	=28	=28	=28	=28	=28	=28	=28	=28	=28	=28	=28
2E 2EE/	2ee 2cc#/	.	2E\	.	mo-	mo-	2cc#\	.	mo-	mo-	2ee\	.	mo-	mo-
2A 2AA\	8cc# 8a\	.	8A\	.	-ze	-że,	8a\	.	-ze	-że,	8cc#\	.	-ze	-że,
.	8r	.	8r	.	.	.	8r	.	.	.	8r	.	.	.
.	4ee 4cc#\	.	4A\	.	Po-	po-	4cc#\	.	Po-	po-	4ee\	.	po-	po-
=29	=29	=29	=29	=29	=29	=29	=29	=29	=29	=29	=29	=29	=29	=29
!	!	!	!	!	!	!	!	!	!	!	!LO:SIC:s=(4.ee\:v	!	!	!
[1A [1AA	4.ee 4.cc#\	.	2.A\	.	-tę-	-tę-	(4.cc#\	.	-tę-	-tę-	4.ee\	.	-tę-	-tę-
!	!	!	!	!	!	!	!LO:SIC:s=8b\:v	!	!	!	!	!	!	!
.	8dd 8b\	.	.	.	.	.	8b\)	.	.	.	8dd\	.	.	.
!	!	!	!	!	!	!	!LO:SIC:s=4a\):v	!	!	!	!LO:LB:g=original	!	!	!
!	!	!	!	!	!	!	!	!	!	!	!LO:SIC:s=4cc#\):v	!	!	!
.	4cc# 4a\	.	.	.	.	.	4a\	.	.	.	4cc#\	.	.	.
.	4dd 4b\	.	4A\	.	-zny	-żny	4b\	.	-zny	-żny	4dd\	.	-zny	-żny
=30	=30	=30	=30	=30	=30	=30	=30	=30	=30	=30	=30	=30	=30	=30
(1A] (1AA]	2ee 2cc#\	.	2A\	.	Bo-	Bo-	2cc#\	.	Bo-	Bo-	2ee\	.	bo-	Bo-
.	4cc# 4a\	.	8A\	.	-ze	-że,	8a\	.	-ze	-że,	8cc#\	.	-ze	-że,
.	.	.	8r	.	.	.	8r	.	.	.	8r	.	.	.
.	4cc# 4a\	.	4A\	.	Po-	po-	4a\	.	Po-	po-	4cc#\	.	Po-	po-
!	!	!	!	!	!	!	!LO:LB:g=original	!	!	!	!	!	!	!
=31	=31	=31	=31	=31	=31	=31	=31	=31	=31	=31	=31	=31	=31	=31
[1E [1EE))	4cc# 4a\	.	2.E\	.	-te-	-tę-	(4a/	.	-te-	-tę-	(4cc#\	.	-te-	-tę-
.	8bL 8g#\	.	.	.	.	.	8g#/L	.	.	.	8b\L	.	.	.
.	8cc#J 8a\	.	.	.	.	.	8a/J	.	.	.	8cc#\J	.	.	.
!	!LO:SIC:s=(8eeL 8cc#\:v	!	!	!	!	!	!	!	!	!	!	!	!	!
.	8eeL 8cc#\	.	.	.	.	.	8cc#/L	.	.	.	8ee\L	.	.	.
.	8dd 8b\	.	.	.	.	.	8b/J)	.	.	.	8dd\J)	.	.	.
!	!	!	!	!	!	!	!LO:SIC:s=(8a/L:v	!	!	!	!LO:SIC:s=(8cc#\L:v	!	!	!
.	8cc# 8a\	.	4E\	.	-zny	-żny	8a/L	.	-zny	-żny	8cc#\L	.	-zny	-żny
!	!LO:SIC:s=8bJ 8g#\):v	!	!	!	!	!	!LO:SIC:s=8g#/J):v	!	!	!	!LO:SIC:s=8b\J):v	!	!	!
.	8bJ 8g#\	.	.	.	.	.	8g#/J	.	.	.	8b\J	.	.	.
!	!	!	!LO:LB:g=original	!	!	!	!	!	!	!	!	!	!	!
=32	=32	=32	=32	=32	=32	=32	=32	=32	=32	=32	=32	=32	=32	=32
2E] 2EE/]	2b 2g# 2d/	.	2E\	.	Bo-	Bo-	2g#/	.	Bo-	Bo-	2b\	.	Bo-	Bo-
4A 4AA\	4a 4c#/	.	4A\	.	-ze	-że.	4a/	.	-ze	-że.	4a\	.	-ze	-że.
4r	4r	.	4r	.	.	.	4r	.	.	.	4r	.	.	.
=33	=33	=33	=33	=33	=33	=33	=33	=33	=33	=33	=33	=33	=33	=33
2A 2AA\	2ee 2cc# 2e\	.	2AA/	.	a-	A-	2cc#\	.	A-	A-	2ee\	.	A-	A-
4A 4AA\	4cc# 4a 4e/	.	4AA/	.	-men	-men,	4a\	.	-men	-men,	4cc#\	.	-men	-men,
4r	4r	.	4r	.	.	.	4r	.	.	.	4r	.	.	.
=34	=34	=34	=34	=34	=34	=34	=34	=34	=34	=34	=34	=34	=34	=34
*	*	*	*	*	*	*	*	*	*ij	*ij	*	*	*	*
2A 2AA\	2cc# 2e/	.	2AA/	.	a-	a-	2e/	.	A-	a-	2cc#\	.	A-	a-
4A 4AA\	4a 4c#/	.	4AA/	.	-men	-men.	4c#/	.	-men	-men.	4a\	.	-(men)	-(men).
*	*	*	*	*	*	*	*	*	*Xij	*Xij	*	*	*	*
4r	4r	.	4r	.	.	.	4r	.	.	.	4r	.	.	.
==	==	==	==	==	==	==	==	==	==	==	==	==	==	==
*-	*-	*-	*-	*-	*-	*-	*-	*-	*-	*-	*-	*-	*-	*-
!!!system-decoration: [(s1,s2,s3)]{(s4,s5)}
!!!RDF**kern: < = below
!!!filter-modern: tie -s | humtr -p | sic -sq | shed -e "s/LO:DY:(a|b|rj)/LO:dy:$1/L" | shed -e "s/TX(.*):t=P:/tx$1:t=P:/LG" | modori -m | autostem -r | shed -e "s/yy//" | shed -k -e "s/\(y([^y])/($1/" | shed -e "s/-//B" | shed -e "s/^(\d+[\/\\]right)/$1yy/I; s/^(\d+[\/\\]left)/$1yy/I" | shed -e "s/^(X?)rep$/$1REP/I" | shed -k -e "s/[<>]//g" | shed -e "s/^custos:/Xcustos:/I" | shed -k -e "s/:TUP:/:tup:/L" | rid -lid
!!!ENC: Tomasz Grochalski
!!!END: 2020-08-31
!!!ENC: Marta Lawrence
!!!END: 2021-11-08
!!!EED-modern: Antoni Szymański
!!!END-modern: 2022-07-05
!!!YEC: Copyright 2022 Narodowy Instytut Fryderyka Chopina (https://polishscores.org)
!!!YEM: License CC-BY-4.0 (https://creativecommons.org/licenses/by/4.0)
